X: 1818
T: Queensland My Home
C:Bill Montgomery, Kiama, NSW
B: australian traditional tunes wiki
M:4/4
L:1/8
R: March
Q: 1/4=100
K:D
V:1 
AF|"D"D2FGA2de|f2f>a gfed|"A7"c2cde2ce|"D"d2d>e fdAF|
"D"A2ABA2de|f2f>a gfed|"A7"c2cde2fe|"D"d2"A7"de"D"d2:|
fg|"D"a2ab afed|"Em"B2BdB2A2|"Bm"d2def2df|"A7"a2gfe2fg|
"D"a2ab afed|"Em"B2BdB2A2|"D"d2def2ag|"D"f2"A7"ce"D"d2fg|
"D"a2ab afed|"Em"B2BdB2A2|"Bm"d2def2df|"A7"a2gfe2eA|
"D"A2FGA2de|f2f>a gfed|"A7"c2cde2fe|"D"d2"A7"de"D"d2||
% abcbook-tune_id 6342d53acd3adad32973a904


% abcbook-boost 0
% abcbook-tablature 
% abcbook-transpose 
% abcbook-lastupdated 1665324385766
% abcbook-soundfonts 
% abcbook-repeats 1
% NFF Book 2018

